img/icons/as-yt.svg

<svg xmlns="http://www.w3.org/2000/svg" width="65" height="65" viewBox="0 0 65 65"><path d="M61.427 61.426c-2.384 2.384-5.255 3.578-8.612 3.578H12.187c-3.359 0-6.229-1.194-8.613-3.578-2.384-2.382-3.576-5.254-3.576-8.611V12.187c0-3.358 1.192-6.228 3.576-8.614C5.959 1.191 8.829-.002 12.187-.002h40.628c3.357 0 6.228 1.193 8.612 3.575 2.384 2.386 3.577 5.256 3.577 8.614v40.628c0 3.357-1.193 6.229-3.577 8.611zM24.46 4.019l-2.158 8.252-2.243-8.252h-3.302l1.016 2.919c.451 1.3.776 2.273.974 2.921.987 2.907 1.636 5.135 1.947 6.687v8.506h3.132v-8.506l3.808-12.527H24.46zm11.594 10.452c0-1.634-.295-2.862-.888-3.681-.819-1.071-1.919-1.608-3.3-1.608-1.439 0-2.54.537-3.301 1.608-.593.818-.889 2.047-.889 3.681v5.502c0 1.638.296 2.865.889 3.681.761 1.073 1.862 1.609 3.301 1.609 1.381 0 2.481-.535 3.3-1.609.593-.76.888-1.988.888-3.681v-5.502zm10.497-5.078h-2.835V21.37c-.621.876-1.213 1.313-1.778 1.313-.422 0-.648-.225-.676-.678-.028-.056-.043-.424-.043-1.101V9.393h-2.835v12.4c0 1.045.084 1.82.253 2.328.31.762.917 1.143 1.82 1.143 1.016 0 2.102-.636 3.259-1.905v1.693h2.835V9.393zm8.424 23.7c-.283-1.24-.888-2.277-1.82-3.109a5.711 5.711 0 0 0-3.217-1.462c-3.837-.424-9.649-.635-17.436-.635-7.76 0-13.558.212-17.394.635a5.65 5.65 0 0 0-3.238 1.462c-.916.832-1.516 1.869-1.798 3.109-.564 2.455-.846 6.123-.846 11.003 0 4.966.282 8.634.846 11.004a5.928 5.928 0 0 0 1.798 3.09c.917.846 1.982 1.341 3.196 1.481 3.864.424 9.676.635 17.435.635 7.759 0 13.571-.212 17.437-.635 1.213-.14 2.278-.634 3.195-1.481a5.945 5.945 0 0 0 1.798-3.09c.565-2.37.846-6.038.848-11.004 0-4.994-.268-8.661-.804-11.003zM46.679 49.64c0 1.438.479 2.158 1.439 2.158.677 0 1.1-.366 1.27-1.1 0-.029.005-.127.02-.295.013-.171.021-.404.021-.7v-.909h2.878v.381c0 .818-.028 1.427-.084 1.82a3.982 3.982 0 0 1-.635 1.693c-.762 1.13-1.891 1.693-3.386 1.693-1.467 0-2.61-.535-3.428-1.608-.593-.762-.889-1.974-.889-3.639v-5.461c0-1.662.282-2.878.846-3.638.819-1.071 1.947-1.609 3.386-1.609s2.54.538 3.302 1.608c.592.79.889 2.004.889 3.639v3.216h-5.629v2.751zm2.793-5.077v-1.44c0-1.438-.466-2.158-1.398-2.158-.93 0-1.396.719-1.396 2.158v1.44h2.794zm-10.326 9.818c-.989 0-1.947-.579-2.878-1.736v1.524h-2.836V33.304h2.836v6.815c.902-1.129 1.862-1.693 2.878-1.693 1.157 0 1.904.592 2.242 1.777.197.592.297 1.636.297 3.131v6.179c0 1.468-.1 2.497-.297 3.09-.338 1.186-1.085 1.778-2.242 1.778zm-.254-11.299c0-1.411-.41-2.117-1.228-2.117-.48 0-.945.227-1.396.677v9.481c.451.451.916.676 1.396.676.818 0 1.228-.69 1.228-2.074v-6.643zm-10.708 9.394c-1.1 1.27-2.173 1.905-3.216 1.905-.931 0-1.524-.393-1.777-1.186-.169-.451-.254-1.211-.254-2.284V38.638h2.792v11.426c0 .676.014 1.045.043 1.099.027.424.239.636.634.636.564 0 1.157-.437 1.778-1.312V38.638h2.836v15.531h-2.836v-1.693zm-9.057 1.693h-3.131V36.267h-3.301v-2.963h9.818v2.963h-3.386v17.902zm12.739-31.486c-.903 0-1.354-.721-1.354-2.16V13.92c0-1.466.451-2.2 1.354-2.2s1.355.734 1.355 2.2v6.603c0 1.439-.452 2.16-1.355 2.16z" fill="#FFF"/></svg>

<svg version="1.1" xmlns="http://www.w3.org/2000/svg" xmlns:xlink="http://www.w3.org/1999/xlink" width="65" height="65" viewBox="0 0 65 65"><path id="youtube" d="M61.427,61.426 C59.043,63.810 56.172,65.004 52.815,65.004 C52.815,65.004 12.187,65.004 12.187,65.004 C8.828,65.004 5.958,63.810 3.574,61.426 C1.190,59.044 -0.002,56.172 -0.002,52.815 C-0.002,52.815 -0.002,12.187 -0.002,12.187 C-0.002,8.829 1.190,5.959 3.574,3.573 C5.959,1.191 8.829,-0.002 12.187,-0.002 C12.187,-0.002 52.815,-0.002 52.815,-0.002 C56.172,-0.002 59.043,1.191 61.427,3.573 C63.811,5.959 65.004,8.829 65.004,12.187 C65.004,12.187 65.004,52.815 65.004,52.815 C65.004,56.172 63.811,59.044 61.427,61.426 zM24.460,4.019 L22.302,12.271 L20.059,4.019 C20.059,4.019 16.757,4.019 16.757,4.019 C16.982,4.668 17.321,5.642 17.773,6.938 C18.224,8.238 18.549,9.211 18.747,9.859 C19.734,12.766 20.383,14.994 20.694,16.546 C20.694,16.546 20.694,25.052 20.694,25.052 L23.826,25.052 L23.826,16.546 L27.634,4.019 L24.460,4.019 zM36.054,14.471 C36.054,12.837 35.759,11.609 35.166,10.790 C34.347,9.719 33.247,9.182 31.866,9.182 C30.427,9.182 29.326,9.719 28.565,10.790 C27.972,11.608 27.676,12.837 27.676,14.471 C27.676,14.471 27.676,19.973 27.676,19.973 C27.676,21.611 27.972,22.838 28.565,23.654 C29.326,24.727 30.427,25.263 31.866,25.263 C33.247,25.263 34.347,24.728 35.166,23.654 C35.759,22.894 36.054,21.666 36.054,19.973 C36.054,19.973 36.054,14.471 36.054,14.471 zM46.551,9.393 L43.716,9.393 C43.716,9.393 43.716,21.370 43.716,21.370 C43.095,22.246 42.503,22.683 41.938,22.683 C41.516,22.683 41.290,22.458 41.262,22.005 C41.234,21.949 41.219,21.581 41.219,20.904 C41.219,20.904 41.219,9.393 41.219,9.393 L38.384,9.393 C38.384,9.393 38.384,21.793 38.384,21.793 C38.384,22.838 38.468,23.613 38.637,24.121 C38.947,24.883 39.554,25.264 40.457,25.264 C41.473,25.264 42.559,24.628 43.716,23.359 C43.716,23.359 43.716,25.052 43.716,25.052 L46.551,25.052 L46.551,9.393 zM54.975,33.093 C54.692,31.853 54.087,30.816 53.155,29.984 C52.224,29.150 51.152,28.664 49.938,28.522 C46.101,28.098 40.289,27.887 32.502,27.887 C24.742,27.887 18.944,28.099 15.108,28.522 C13.867,28.664 12.787,29.150 11.870,29.984 C10.954,30.816 10.354,31.853 10.072,33.093 C9.508,35.548 9.226,39.216 9.226,44.096 C9.226,49.062 9.508,52.730 10.072,55.100 C10.353,56.316 10.953,57.344 11.870,58.190 C12.787,59.036 13.852,59.531 15.066,59.671 C18.930,60.095 24.742,60.306 32.501,60.306 C40.260,60.306 46.072,60.094 49.938,59.671 C51.151,59.531 52.216,59.037 53.133,58.190 C54.049,57.344 54.649,56.315 54.931,55.100 C55.496,52.730 55.777,49.062 55.779,44.096 C55.779,39.102 55.511,35.435 54.975,33.093 zM46.679,49.640 C46.679,51.078 47.158,51.798 48.118,51.798 C48.795,51.798 49.218,51.432 49.388,50.698 C49.388,50.669 49.393,50.571 49.408,50.403 C49.421,50.232 49.429,49.999 49.429,49.703 C49.429,49.408 49.429,49.105 49.429,48.794 C49.429,48.794 52.307,48.794 52.307,48.794 C52.307,48.794 52.307,49.175 52.307,49.175 C52.307,49.993 52.279,50.602 52.223,50.995 C52.138,51.618 51.926,52.180 51.588,52.688 C50.826,53.818 49.697,54.381 48.202,54.381 C46.735,54.381 45.592,53.846 44.774,52.773 C44.181,52.011 43.885,50.799 43.885,49.134 C43.885,49.134 43.885,43.673 43.885,43.673 C43.885,42.011 44.167,40.795 44.731,40.035 C45.550,38.964 46.678,38.426 48.117,38.426 C49.556,38.426 50.657,38.964 51.419,40.034 C52.011,40.824 52.308,42.038 52.308,43.673 C52.308,43.673 52.308,46.889 52.308,46.889 L46.679,46.889 C46.679,46.889 46.679,49.640 46.679,49.640 zM49.472,44.563 C49.472,44.563 49.472,43.123 49.472,43.123 C49.472,41.685 49.006,40.965 48.074,40.965 C47.144,40.965 46.678,41.684 46.678,43.123 C46.678,43.123 46.678,44.563 46.678,44.563 L49.472,44.563 zM39.146,54.381 C38.157,54.381 37.199,53.802 36.268,52.645 C36.268,52.645 36.268,54.169 36.268,54.169 L33.432,54.169 L33.432,33.304 L36.268,33.304 C36.268,33.304 36.268,40.119 36.268,40.119 C37.170,38.990 38.130,38.426 39.146,38.426 C40.303,38.426 41.050,39.018 41.388,40.203 C41.585,40.795 41.685,41.839 41.685,43.334 C41.685,43.334 41.685,49.513 41.685,49.513 C41.685,50.981 41.585,52.010 41.388,52.603 C41.050,53.789 40.303,54.381 39.146,54.381 zM38.892,43.082 C38.892,41.671 38.482,40.965 37.664,40.965 C37.184,40.965 36.719,41.192 36.268,41.642 C36.268,41.642 36.268,51.123 36.268,51.123 C36.719,51.574 37.184,51.799 37.664,51.799 C38.482,51.799 38.892,51.109 38.892,49.725 C38.892,49.725 38.892,43.082 38.892,43.082 zM28.184,52.476 C27.084,53.746 26.011,54.381 24.968,54.381 C24.037,54.381 23.444,53.988 23.191,53.195 C23.022,52.744 22.937,51.984 22.937,50.911 C22.937,50.911 22.937,38.638 22.937,38.638 L25.729,38.638 C25.729,38.638 25.729,50.064 25.729,50.064 C25.729,50.740 25.743,51.109 25.772,51.163 C25.799,51.587 26.011,51.799 26.406,51.799 C26.970,51.799 27.563,51.362 28.184,50.487 C28.184,50.487 28.184,50.487 28.184,50.487 L28.184,38.638 L31.020,38.638 L31.020,54.169 L28.184,54.169 C28.184,54.169 28.184,52.476 28.184,52.476 zM19.127,54.169 L15.996,54.169 L15.996,36.267 L12.695,36.267 L12.695,33.304 L22.513,33.304 L22.513,36.267 L19.127,36.267 L19.127,54.169 zM31.866,22.683 C30.963,22.683 30.512,21.962 30.512,20.523 C30.512,20.523 30.512,13.920 30.512,13.920 C30.512,12.454 30.963,11.720 31.866,11.720 C32.769,11.720 33.221,12.454 33.221,13.920 C33.221,13.920 33.221,20.523 33.221,20.523 C33.221,21.962 32.769,22.683 31.866,22.683 z" fill="#FFFFFF" /></svg>
